docs/src/assets/images/itcss.svg

<svg width="401" height="347" viewBox="0 0 401 347" fill="none" xmlns="http://www.w3.org/2000/svg">
<mask id="mask0" mask-type="alpha" maskUnits="userSpaceOnUse" x="0" y="0" width="401" height="347">
<rect width="401" height="347" fill="white"/>
</mask>
<g mask="url(#mask0)">
<path d="M30.9864 83.1419C53.1679 -11.5112 256.934 -35.0528 256.934 33.1878C256.934 148.598 409.392 154.799 398.437 220.945C387.482 287.09 255.412 206.304 199.876 276.929C144.34 347.553 11.2064 167.547 30.9864 83.1419Z" fill="#54FFB9" fill-opacity="0.5"/>
<path d="M180.88 331.884L16.4698 47.1164C7.97217 32.398 18.5942 14 35.5896 14L364.41 14C381.406 14 392.028 32.398 383.53 47.1164L219.12 331.884C210.622 346.602 189.378 346.602 180.88 331.884Z" stroke="#2A1468" stroke-width="8"/>
<circle cx="36.2327" cy="36.0775" r="27.1207" fill="#FED049"/>
<circle cx="363.767" cy="36.0775" r="27.1207" fill="#FED049"/>
<circle cx="200" cy="319.802" r="27.1207" fill="#FED049"/>
<path d="M194.754 312.499L36.3735 37.313C34.455 33.9796 36.861 29.8188 40.707 29.8188H367.366C371.271 29.8188 373.669 34.0956 371.632 37.4274L203.353 312.613C201.372 315.852 196.647 315.789 194.754 312.499Z" fill="#FED049"/>
<circle cx="36.4884" cy="36.4884" r="19.6047" stroke="#494771" stroke-width="6"/>
<path fill-rule="evenodd" clip-rule="evenodd" d="M42.9767 0L69.9767 1.98806e-06C71.6336 0 72.9767 1.34315 72.9767 3V30C72.9767 31.6569 71.6336 33 69.9767 33C68.3199 33 66.9767 31.6569 66.9767 30V10.2426L46.1891 31.0302C45.2771 29.2024 43.8843 27.6563 42.1765 26.5576L62.7341 6H42.9767C41.3199 6 39.9767 4.65685 39.9767 3C39.9767 1.34315 41.3199 0 42.9767 0ZM26.5576 42.1765C25.4247 40.4155 24.7674 38.3194 24.7674 36.0698C24.7674 29.8277 29.8277 24.7674 36.0698 24.7674C38.3194 24.7674 40.4155 25.4247 42.1765 26.5576L34.3671 34.3671L26.5576 42.1765ZM26.5576 42.1765C27.6563 43.8843 29.2024 45.2771 31.0302 46.1891L10.2426 66.9767H30C31.6569 66.9767 33 68.3199 33 69.9767C33 71.6336 31.6569 72.9767 30 72.9767H3C1.34315 72.9767 0 71.6336 1.98806e-06 69.9767L0 42.9767C0 41.3199 1.34315 39.9767 3 39.9767C4.65685 39.9767 6 41.3199 6 42.9767V62.7341L26.5576 42.1765ZM31.0302 46.1891L38.6097 38.6097L46.1891 31.0302C46.9462 32.5475 47.3721 34.2589 47.3721 36.0698C47.3721 42.3119 42.3119 47.3721 36.0698 47.3721C34.2589 47.3721 32.5475 46.9462 31.0302 46.1891Z" fill="#FF6D54"/>
<circle cx="364.488" cy="36.4884" r="19.6047" transform="rotate(-90 364.488 36.4884)" stroke="#2A1468" stroke-width="6"/>
<path fill-rule="evenodd" clip-rule="evenodd" d="M328 30.0001L328 3.00006C328 1.34321 329.343 6.10352e-05 331 6.10352e-05H358C359.657 6.10352e-05 361 1.34321 361 3.00006C361 4.65691 359.657 6.00006 358 6.00006H338.243L359.03 26.7877C357.202 27.6997 355.656 29.0925 354.558 30.8003L334 10.2427V30.0001C334 31.6569 332.657 33.0001 331 33.0001C329.343 33.0001 328 31.6569 328 30.0001ZM370.177 46.4192C368.415 47.5521 366.319 48.2094 364.07 48.2094C357.828 48.2094 352.767 43.1491 352.767 36.907C352.767 34.6574 353.425 32.5613 354.558 30.8003L362.367 38.6098L370.177 46.4192ZM370.177 46.4192C371.884 45.3205 373.277 43.7744 374.189 41.9466L394.977 62.7342V42.9768C394.977 41.32 396.32 39.9768 397.977 39.9768C399.634 39.9768 400.977 41.32 400.977 42.9768V69.9768C400.977 71.6337 399.634 72.9768 397.977 72.9768L370.977 72.9768C369.32 72.9768 367.977 71.6337 367.977 69.9768C367.977 68.32 369.32 66.9768 370.977 66.9768H390.734L370.177 46.4192ZM374.189 41.9466L366.61 34.3671L359.03 26.7877C360.547 26.0306 362.259 25.6047 364.07 25.6047C370.312 25.6047 375.372 30.6649 375.372 36.907C375.372 38.7179 374.946 40.4293 374.189 41.9466Z" fill="#FF6D54"/>
<circle cx="199.602" cy="319.602" r="19.6047" transform="rotate(45 199.602 319.602)" stroke="#494771" stroke-width="6"/>
<path fill-rule="evenodd" clip-rule="evenodd" d="M229.991 298.389L249.083 317.481C250.255 318.653 250.255 320.552 249.083 321.724L229.991 340.816C228.82 341.987 226.92 341.987 225.749 340.816C224.577 339.644 224.577 337.744 225.749 336.573L239.719 322.602L210.321 322.602C210.969 320.665 211.077 318.587 210.647 316.602L239.719 316.602L225.749 302.632C224.577 301.46 224.577 299.561 225.749 298.389C226.92 297.218 228.82 297.218 229.991 298.389ZM188.558 316.602C189.002 314.556 190.02 312.609 191.61 311.018C196.024 306.605 203.18 306.605 207.594 311.018C209.185 312.609 210.202 314.556 210.647 316.602L199.602 316.602L188.558 316.602ZM188.558 316.602C188.127 318.587 188.236 320.665 188.883 322.602L159.485 322.602L173.456 336.573C174.627 337.744 174.627 339.644 173.456 340.816C172.284 341.987 170.385 341.987 169.213 340.816L150.121 321.724C148.95 320.552 148.95 318.653 150.121 317.481L169.213 298.389C170.385 297.218 172.284 297.218 173.456 298.389C174.627 299.561 174.627 301.46 173.456 302.632L159.485 316.602L188.558 316.602ZM188.883 322.602H199.602H210.321C209.784 324.211 208.875 325.722 207.594 327.002C203.18 331.416 196.024 331.416 191.61 327.002C190.33 325.722 189.421 324.211 188.883 322.602Z" fill="#FF6D54"/>
<path fill-rule="evenodd" clip-rule="evenodd" d="M201 225C254.572 225 298 181.572 298 128C298 74.4284 254.572 31 201 31C147.428 31 104 74.4284 104 128C104 181.572 147.428 225 201 225ZM148.017 144.252C148.574 143.724 148.853 143.079 148.853 142.316V116.884C148.853 116.121 148.589 115.491 148.061 114.992C147.533 114.464 146.902 114.2 146.169 114.2C145.347 114.2 144.673 114.464 144.145 114.992C143.617 115.491 143.353 116.121 143.353 116.884V142.316C143.353 143.079 143.602 143.724 144.101 144.252C144.629 144.751 145.289 145 146.081 145C146.814 145 147.459 144.751 148.017 144.252ZM177.646 114.904C177.147 114.435 176.502 114.2 175.71 114.2H156.174C155.411 114.2 154.766 114.435 154.238 114.904C153.739 115.373 153.49 115.975 153.49 116.708C153.49 117.471 153.739 118.087 154.238 118.556C154.737 119.025 155.382 119.26 156.174 119.26H163.082V142.316C163.082 143.079 163.346 143.724 163.874 144.252C164.402 144.751 165.077 145 165.898 145C166.719 145 167.409 144.751 167.966 144.252C168.523 143.724 168.802 143.079 168.802 142.316V119.26H175.71C176.502 119.26 177.147 119.04 177.646 118.6C178.145 118.131 178.394 117.515 178.394 116.752C178.394 115.989 178.145 115.373 177.646 114.904ZM205.078 117.94C205.078 116.913 204.623 116.165 203.714 115.696C201.484 114.552 199.064 113.98 196.454 113.98C193.432 113.98 190.719 114.655 188.314 116.004C185.908 117.324 184.016 119.172 182.638 121.548C181.288 123.924 180.614 126.608 180.614 129.6C180.614 132.973 181.332 135.848 182.77 138.224C184.207 140.6 186.128 142.404 188.534 143.636C190.939 144.839 193.579 145.44 196.454 145.44C199.035 145.44 201.47 144.868 203.758 143.724C204.198 143.519 204.535 143.225 204.77 142.844C205.004 142.463 205.122 142.037 205.122 141.568C205.122 140.923 204.902 140.321 204.462 139.764C203.934 139.119 203.288 138.796 202.526 138.796C202.115 138.796 201.646 138.913 201.118 139.148C199.798 139.823 198.243 140.16 196.454 140.16C193.432 140.16 190.983 139.265 189.106 137.476C187.258 135.687 186.334 133.061 186.334 129.6C186.334 127.576 186.744 125.787 187.566 124.232C188.387 122.648 189.56 121.431 191.086 120.58C192.611 119.7 194.4 119.26 196.454 119.26C198.126 119.26 199.68 119.597 201.118 120.272C201.616 120.536 202.115 120.668 202.614 120.668C203.347 120.668 203.948 120.36 204.418 119.744C204.858 119.157 205.078 118.556 205.078 117.94ZM214.007 144.648C215.65 145.176 217.527 145.44 219.639 145.44C221.634 145.44 223.497 145.073 225.227 144.34C226.958 143.577 228.337 142.507 229.363 141.128C230.419 139.72 230.947 138.092 230.947 136.244C230.947 134.279 230.566 132.709 229.803 131.536C229.041 130.333 227.897 129.395 226.371 128.72C224.875 128.016 222.866 127.444 220.343 127.004C218.114 126.593 216.471 126.065 215.415 125.42C214.389 124.775 213.875 123.821 213.875 122.56C213.875 121.445 214.374 120.551 215.371 119.876C216.398 119.172 217.835 118.82 219.683 118.82C220.769 118.82 221.986 119.084 223.335 119.612C224.714 120.111 225.785 120.668 226.547 121.284C226.899 121.548 227.295 121.68 227.735 121.68C228.41 121.68 228.997 121.431 229.495 120.932C229.994 120.404 230.243 119.803 230.243 119.128C230.243 118.248 229.818 117.471 228.967 116.796C227.882 115.887 226.518 115.153 224.875 114.596C223.262 114.039 221.531 113.76 219.683 113.76C217.63 113.76 215.767 114.127 214.095 114.86C212.423 115.564 211.103 116.605 210.135 117.984C209.167 119.333 208.683 120.932 208.683 122.78C208.683 127.825 211.895 130.817 218.319 131.756C220.871 132.137 222.734 132.709 223.907 133.472C225.081 134.205 225.667 135.232 225.667 136.552C225.667 137.637 225.066 138.547 223.863 139.28C222.69 140.013 221.282 140.38 219.639 140.38C218.114 140.38 216.794 140.16 215.679 139.72C214.565 139.28 213.421 138.576 212.247 137.608C211.807 137.256 211.309 137.08 210.751 137.08C210.047 137.08 209.446 137.344 208.947 137.872C208.449 138.371 208.199 138.957 208.199 139.632C208.199 140.483 208.595 141.26 209.387 141.964C210.825 143.225 212.365 144.12 214.007 144.648ZM240.261 144.648C241.904 145.176 243.781 145.44 245.893 145.44C247.888 145.44 249.751 145.073 251.481 144.34C253.212 143.577 254.591 142.507 255.617 141.128C256.673 139.72 257.201 138.092 257.201 136.244C257.201 134.279 256.82 132.709 256.057 131.536C255.295 130.333 254.151 129.395 252.625 128.72C251.129 128.016 249.12 127.444 246.597 127.004C244.368 126.593 242.725 126.065 241.669 125.42C240.643 124.775 240.129 123.821 240.129 122.56C240.129 121.445 240.628 120.551 241.625 119.876C242.652 119.172 244.089 118.82 245.937 118.82C247.023 118.82 248.24 119.084 249.589 119.612C250.968 120.111 252.039 120.668 252.801 121.284C253.153 121.548 253.549 121.68 253.989 121.68C254.664 121.68 255.251 121.431 255.749 120.932C256.248 120.404 256.497 119.803 256.497 119.128C256.497 118.248 256.072 117.471 255.221 116.796C254.136 115.887 252.772 115.153 251.129 114.596C249.516 114.039 247.785 113.76 245.937 113.76C243.884 113.76 242.021 114.127 240.349 114.86C238.677 115.564 237.357 116.605 236.389 117.984C235.421 119.333 234.937 120.932 234.937 122.78C234.937 127.825 238.149 130.817 244.573 131.756C247.125 132.137 248.988 132.709 250.161 133.472C251.335 134.205 251.921 135.232 251.921 136.552C251.921 137.637 251.32 138.547 250.117 139.28C248.944 140.013 247.536 140.38 245.893 140.38C244.368 140.38 243.048 140.16 241.933 139.72C240.819 139.28 239.675 138.576 238.501 137.608C238.061 137.256 237.563 137.08 237.005 137.08C236.301 137.08 235.7 137.344 235.201 137.872C234.703 138.371 234.453 138.957 234.453 139.632C234.453 140.483 234.849 141.26 235.641 141.964C237.079 143.225 238.619 144.12 240.261 144.648Z" fill="white"/>
</g>
</svg>

<svg xmlns="http://www.w3.org/2000/svg" width="401" height="347" fill="none" xmlns:v="https://vecta.io/nano"><mask id="A" mask-type="alpha" maskUnits="userSpaceOnUse" x="0" y="0" width="401" height="347"><path fill="#fff" d="M0 0h401v347H0z"/></mask><g mask="url(#A)"><path d="M30.986 83.142C53.168-11.511 256.934-35.053 256.934 33.188c0 115.41 152.458 121.611 141.503 187.757s-143.025-14.641-198.561 55.984S11.206 167.547 30.986 83.142z" fill="#54ffb9" fill-opacity=".5"/><path d="M180.88 331.884L16.47 47.116C7.972 32.398 18.594 14 35.59 14h328.82c16.996 0 27.618 18.398 19.12 33.116L219.12 331.884c-8.498 14.718-29.742 14.718-38.24 0z" stroke="#2a1468" stroke-width="8"/><circle cx="36.233" cy="36.078" r="27.121" fill="#fed049"/><circle cx="363.767" cy="36.078" r="27.121" fill="#fed049"/><circle cx="200" cy="319.802" r="27.121" fill="#fed049"/><path d="M194.754 312.499L36.374 37.313c-1.919-3.333.487-7.494 4.334-7.494h326.659c3.905 0 6.303 4.277 4.266 7.609L203.353 312.613c-1.981 3.239-6.706 3.176-8.599-.114z" fill="#fed049"/><circle cx="36.488" cy="36.488" r="19.605" stroke="#494771" stroke-width="6"/><path fill-rule="evenodd" d="M42.977 0h27a3 3 0 0 1 3 3v27a3 3 0 1 1-6 0V10.243L46.189 31.03c-.912-1.828-2.305-3.374-4.013-4.473L62.734 6H42.977a3 3 0 1 1 0-6zM26.558 42.177a11.25 11.25 0 0 1-1.79-6.107c0-6.242 5.06-11.302 11.302-11.302a11.25 11.25 0 0 1 6.107 1.79l-7.809 7.81-7.809 7.809zm0 0c1.099 1.708 2.645 3.101 4.473 4.013L10.243 66.977H30a3 3 0 1 1 0 6H3a3 3 0 0 1-3-3v-27a3 3 0 1 1 6 0v19.757l20.558-20.558zm4.473 4.013l7.579-7.579 7.579-7.579c.757 1.517 1.183 3.229 1.183 5.04 0 6.242-5.06 11.302-11.302 11.302-1.811 0-3.522-.426-5.04-1.183z" fill="#ff6d54"/><circle cx="364.488" cy="36.488" r="19.605" transform="rotate(270 364.488 36.488)" stroke="#2a1468" stroke-width="6"/><path fill-rule="evenodd" d="M328 30V3a3 3 0 0 1 3-3h27a3 3 0 0 1 0 6h-19.757l20.787 20.788c-1.828.912-3.374 2.305-4.472 4.013L334 10.243V30a3 3 0 1 1-6 0zm42.177 16.419c-1.762 1.133-3.858 1.79-6.107 1.79-6.242 0-11.303-5.06-11.303-11.302a11.25 11.25 0 0 1 1.791-6.107l7.809 7.81 7.81 7.809zm0 0a11.36 11.36 0 0 0 4.012-4.473l20.788 20.788V42.977a3 3 0 1 1 6 0v27a3 3 0 0 1-3 3h-27a3 3 0 1 1 0-6h19.757l-20.557-20.558zm4.012-4.473l-7.579-7.579-7.58-7.579c1.517-.757 3.229-1.183 5.04-1.183 6.242 0 11.302 5.06 11.302 11.302 0 1.811-.426 3.522-1.183 5.04z" fill="#ff6d54"/><circle cx="199.602" cy="319.602" r="19.605" transform="rotate(45 199.602 319.602)" stroke="#494771" stroke-width="6"/><path fill-rule="evenodd" d="M229.991 298.389l19.092 19.092a3 3 0 0 1 0 4.243l-19.092 19.092a3 3 0 0 1-4.242-4.243l13.97-13.971h-29.398c.648-1.937.756-4.015.326-6h29.072l-13.97-13.97a3 3 0 0 1 4.242-4.243zm-41.433 18.213c.444-2.046 1.462-3.993 3.052-5.584 4.414-4.413 11.57-4.413 15.984 0 1.591 1.591 2.608 3.538 3.053 5.584h-11.045-11.044zm0 0c-.431 1.985-.322 4.063.325 6h-29.398l13.971 13.971a3 3 0 1 1-4.243 4.243l-19.092-19.092a3 3 0 0 1 0-4.243l19.092-19.092a3 3 0 1 1 4.243 4.243l-13.971 13.97h29.073zm.325 6h10.719 10.719c-.537 1.609-1.446 3.12-2.727 4.4-4.414 4.414-11.57 4.414-15.984 0-1.28-1.28-2.189-2.791-2.727-4.4z" fill="#ff6d54"/><path fill-rule="evenodd" d="M201 225c53.572 0 97-43.428 97-97s-43.428-97-97-97-97 43.428-97 97 43.428 97 97 97zm-52.983-80.748c.557-.528.836-1.173.836-1.936v-25.432c0-.763-.264-1.393-.792-1.892a2.58 2.58 0 0 0-1.892-.792c-.822 0-1.496.264-2.024.792-.528.499-.792 1.129-.792 1.892v25.432c0 .763.249 1.408.748 1.936.528.499 1.188.748 1.98.748.733 0 1.378-.249 1.936-.748zm29.629-29.348c-.499-.469-1.144-.704-1.936-.704h-19.536c-.763 0-1.408.235-1.936.704-.499.469-.748 1.071-.748 1.804 0 .763.249 1.379.748 1.848s1.144.704 1.936.704h6.908v23.056a2.63 2.63 0 0 0 .792 1.936c.528.499 1.203.748 2.024.748s1.511-.249 2.068-.748c.557-.528.836-1.173.836-1.936V119.26h6.908c.792 0 1.437-.22 1.936-.66.499-.469.748-1.085.748-1.848s-.249-1.379-.748-1.848zm27.432 3.036c0-1.027-.455-1.775-1.364-2.244-2.23-1.144-4.65-1.716-7.26-1.716-3.022 0-5.735.675-8.14 2.024-2.406 1.32-4.298 3.168-5.676 5.544-1.35 2.376-2.024 5.06-2.024 8.052 0 3.373.718 6.248 2.156 8.624s3.358 4.18 5.764 5.412c2.405 1.203 5.045 1.804 7.92 1.804 2.581 0 5.016-.572 7.304-1.716.44-.205.777-.499 1.012-.88s.352-.807.352-1.276c0-.645-.22-1.247-.66-1.804-.528-.645-1.174-.968-1.936-.968-.411 0-.88.117-1.408.352-1.32.675-2.875 1.012-4.664 1.012-3.022 0-5.471-.895-7.348-2.684-1.848-1.789-2.772-4.415-2.772-7.876 0-2.024.41-3.813 1.232-5.368.821-1.584 1.994-2.801 3.52-3.652 1.525-.88 3.314-1.32 5.368-1.32 1.672 0 3.226.337 4.664 1.012.498.264.997.396 1.496.396.733 0 1.334-.308 1.804-.924.44-.587.66-1.188.66-1.804zm8.929 26.708c1.643.528 3.52.792 5.632.792 1.995 0 3.858-.367 5.588-1.1 1.731-.763 3.11-1.833 4.136-3.212 1.056-1.408 1.584-3.036 1.584-4.884 0-1.965-.381-3.535-1.144-4.708-.762-1.203-1.906-2.141-3.432-2.816-1.496-.704-3.505-1.276-6.028-1.716-2.229-.411-3.872-.939-4.928-1.584-1.026-.645-1.54-1.599-1.54-2.86 0-1.115.499-2.009 1.496-2.684 1.027-.704 2.464-1.056 4.312-1.056 1.086 0 2.303.264 3.652.792 1.379.499 2.45 1.056 3.212 1.672a1.93 1.93 0 0 0 1.188.396c.675 0 1.262-.249 1.76-.748.499-.528.748-1.129.748-1.804 0-.88-.425-1.657-1.276-2.332-1.085-.909-2.449-1.643-4.092-2.2-1.613-.557-3.344-.836-5.192-.836-2.053 0-3.916.367-5.588 1.1-1.672.704-2.992 1.745-3.96 3.124-.968 1.349-1.452 2.948-1.452 4.796 0 5.045 3.212 8.037 9.636 8.976 2.552.381 4.415.953 5.588 1.716 1.174.733 1.76 1.76 1.76 3.08 0 1.085-.601 1.995-1.804 2.728-1.173.733-2.581 1.1-4.224 1.1-1.525 0-2.845-.22-3.96-.66s-2.258-1.144-3.432-2.112a2.33 2.33 0 0 0-1.496-.528 2.39 2.39 0 0 0-1.804.792c-.498.499-.748 1.085-.748 1.76 0 .851.396 1.628 1.188 2.332 1.438 1.261 2.978 2.156 4.62 2.684zm26.254 0c1.643.528 3.52.792 5.632.792 1.995 0 3.858-.367 5.588-1.1 1.731-.763 3.11-1.833 4.136-3.212 1.056-1.408 1.584-3.036 1.584-4.884 0-1.965-.381-3.535-1.144-4.708-.762-1.203-1.906-2.141-3.432-2.816-1.496-.704-3.505-1.276-6.028-1.716-2.229-.411-3.872-.939-4.928-1.584-1.026-.645-1.54-1.599-1.54-2.86 0-1.115.499-2.009 1.496-2.684 1.027-.704 2.464-1.056 4.312-1.056 1.086 0 2.303.264 3.652.792 1.379.499 2.45 1.056 3.212 1.672a1.93 1.93 0 0 0 1.188.396c.675 0 1.262-.249 1.76-.748.499-.528.748-1.129.748-1.804 0-.88-.425-1.657-1.276-2.332-1.085-.909-2.449-1.643-4.092-2.2-1.613-.557-3.344-.836-5.192-.836-2.053 0-3.916.367-5.588 1.1-1.672.704-2.992 1.745-3.96 3.124-.968 1.349-1.452 2.948-1.452 4.796 0 5.045 3.212 8.037 9.636 8.976 2.552.381 4.415.953 5.588 1.716 1.174.733 1.76 1.76 1.76 3.08 0 1.085-.601 1.995-1.804 2.728-1.173.733-2.581 1.1-4.224 1.1-1.525 0-2.845-.22-3.96-.66s-2.258-1.144-3.432-2.112a2.33 2.33 0 0 0-1.496-.528 2.39 2.39 0 0 0-1.804.792c-.498.499-.748 1.085-.748 1.76 0 .851.396 1.628 1.188 2.332 1.438 1.261 2.978 2.156 4.62 2.684z" fill="#fff"/></g></svg>
